t60 l4 v6 q2 o3
[ [g < b0<d0f+2>> d <a0<c+0f+2>>]8
f+ <a0<c+0f+2>>> b<<b0<d0f+2>> e<g0b2> e<b0<d0g2>> d<f0a0<d2>>
>a<<a0<c0e2>> d<g0b0<e2>> d<d0g0b0<e2>> d<c0e0a0<d2>> d<c0f+0a0<d2>>
d<a0<c0f2>> d<a0<c0e2>> d<d0g0b0<e2>> d<c0e0a0<d2>> d<c0f+0a0<d2>>
| e<b0<e0g2>> f+<a0<c+0f+2>>> b<<b0<d0f+2>> e<<c+0e0a2>> e<a0<c+0f+0a2>>
eb0<a0<d>e0b0<d0g>> a0<g2.> d0a0<d2.> ]
e<b0<e0g2>> e<a0<d0f0a2>> e<a0<c0f2>> e<<c0e0a2>> e<a0<c0f0a2>>
eb0<a0<d>e0b0<d0g>> a0<g2.> d0a0<d2.>