t60 v14 l4 o6
[ r2. r2. r2. r2.
rf+a gf+c+ >b<c+d >a2. f+2.& f+2.& f+2.& f+2.< rf+a gf+c+ >b<c+d >a2.<
c+2. f+2. >e2.&e2.&e2.
ab<c ed>b< dc>b< d2.& d2d
efg acd ed>b <d2.& d2d
| g2. f+2.> bab< c+de c+de>
f+2. c0e0a0<c2.> d0f+0a0<d2. ]
g2. f2.> b<cf edc edc>
f2. c0e0a0<c2.> d0f0a0<d2.