t240 >> v1
[
  [ee<b0e> ee<b0f> ee ]4

  ee<b0e> ee<b0f> ee 
  gg<d0g> gg<d0a-> gg 
  ee<b0e> ee<b0f> ee 
  ee<b0e> ee<b0f> ee 
  ee<b0e> ee<b0f> ee 
  gg<d0g> gg<d0a-> gg 
  gg<d0g> gg<d0a-> gg 
  gg<d0g> gg<d0a-> gg
]8

;

t240 <
[
  [r1r1]3
  <d+16e16&e8&e4&e2&e1&e2>
    <b>e<c>e<de fed>g<b->agf+
  re<b>e<c>e<db  rc>agg+2&g+r
  re<b>e<c>e<de fed>g<b->agf+
  rg<d>g<e->g<fd g8g8rrg8g8rrrr
]8
